!!!OTL: 1564. Die Liebesmuehle.
!!!ARE: Europa, Mitteleuropa, Deutschland, Westfalen
!!!SCT: E1564
!!!TXL: @@NDS
!!!YEM: Copyright 1995, estate of Helmut Schaffrath.
**kern	**text
*ICvox	*
*M6/8	*
*k[b-]	*
*F:	*
!LO:TX:a:t=Lebhaft.	!
!LO:TX:a:t=Weſtſäliſch. Keſtner's Mſpt.	!
{8c	We
=1	=1
4f	ſall
8g	dat
4a	Mühl-
8b-	-ken
=2	=2
4.cc	mah-
4a}	-len?
{16a	Ve-
16b-/	-der
=3	=3
4cc	lipp
8cc	un
4f;}	dei!
{8cc	Dat
=4	=4
4dd	ſall
8cc	wol
4dd	u-
8cc	-ſe
=5	=5
[4cc	Hin-
8cc]	-rich
4.a}	don.
=6	=6
{4.ff	Ei
4dd	ja,
16dd	ve-
16dd	-der
=7	=7
4dd	lipp
8dd	un
4cc;}	dei!
{8a	Ei
=8	=8
4cc	ja,
8cc	der
8cc	Lie-
8.cc	-ben
16b-	ſind
=9	=9
[4.a	twei!
4a;]}	.
==	==
!!!AGN: Staende -, Bauern - Lied, Flachsbrechen, bei der Arbeit
!!!ONB: ESAC (Essen Associative Code) Database: ERK3
!!!AMT: compound duple
!!!AIN: vox
!!!EED: Helmut Schaffrath
!!!EEV: 1.0
!!!GTL: Staendelieder (Berufslieder). 6. Bauernlieder (von und gegen Bauern).
!!!URL-scan: https://rosdok.uni-rostock.de/mcrviewer/recordIdentifier/rosdok_ppn745177999/iview2/phys_0402.iview2?x=-128.77276441889285&y=157.71115233190358&scale=0.5870222003877487&rotation=0&layout=singlePageLayout
!!!ENC: Anna Maria Matuszewska
!!!EEV: 2025/03/01
*-	*-
